material/.icons/material/guitar-acoustic.svg

<svg xmlns="http://www.w3.org/2000/svg" viewBox="0 0 24 24"><path d="M19.59 3H22v2h-1.59l-4.24 4.24c-.37-.56-.85-1.04-1.41-1.41L19.59 3M12 8a4 4 0 014 4 3.99 3.99 0 01-3 3.87V16a5 5 0 01-5 5 5 5 0 01-5-5 5 5 0 015-5h.13c.45-1.76 2.04-3 3.87-3m0 2.5a1.5 1.5 0 00-1.5 1.5 1.5 1.5 0 001.5 1.5 1.5 1.5 0 001.5-1.5 1.5 1.5 0 00-1.5-1.5m-5.06 3.74l-.71.7 2.83 2.83.71-.71-2.83-2.82z"/></svg>

<?xml version="1.0" encoding="UTF-8"?><!DOCTYPE svg PUBLIC "-//W3C//DTD SVG 1.1//EN" "http://www.w3.org/Graphics/SVG/1.1/DTD/svg11.dtd"><svg xmlns="http://www.w3.org/2000/svg" xmlns:xlink="http://www.w3.org/1999/xlink" version="1.1" id="mdi-guitar-acoustic" width="24" height="24" viewBox="0 0 24 24"><path d="M19.59,3H22V5H20.41L16.17,9.24C15.8,8.68 15.32,8.2 14.76,7.83L19.59,3M12,8A4,4 0 0,1 16,12C16,13.82 14.77,15.42 13,15.87V16A5,5 0 0,1 8,21A5,5 0 0,1 3,16A5,5 0 0,1 8,11H8.13C8.58,9.24 10.17,8 12,8M12,10.5A1.5,1.5 0 0,0 10.5,12A1.5,1.5 0 0,0 12,13.5A1.5,1.5 0 0,0 13.5,12A1.5,1.5 0 0,0 12,10.5M6.94,14.24L6.23,14.94L9.06,17.77L9.77,17.06L6.94,14.24Z" /></svg>
